X:1
T:The Road To Ballymac x2
L:1/8
Q:1/4=180
M:4/4
K:G
|:"G"!mf! .G2 z2 .D2 z2 | .G2 z2"C" .C2 z2 |"G" .G2 z2"C" .C2 z2 |"G" .G2 z2"D7" .D2 z2 |
"G" .G2 z2 .D2 z2 |"G" .G2 z2"C" .C2 z2 |"C/D" DD z2 z2 DD |1"D" z4 D4 :|
|2 "D" z4"G" D4 
|:"G" .G2 z2"Em" .E2 z2 |"C" .C2 z2"D7" .D2 z2 |"G" .G2 z2"Am" .A,2 z2 |"C" .C2 z2"D7" D2 z2 |
"G" .G2 z2"Em" .E2 z2 |"C" .C2 z2"D7" .D2 z2 |"G" .G2 z2"C" .C2 z2 |1"D7" .D2 z2"G" .G2 z2 :|
|2 "D7" .D2 z2"G" G4 
|:
